!!!COM: Claude Goudimel
!!!OMD: Psalm 32: O bien-heureux celui dont
**kern	**kern	**kern	**kern
*part4	*part3	*part2	*part1
*staff4	*staff3	*staff2	*staff1
*clefF4	*clefGv2	*clefG2	*clefG2
*k[f#c#]	*k[f#c#]	*k[f#c#]	*k[f#c#]
!!LO:TX:omd:t=
*M4/4	*M4/4	*M4/4	*M4/4
=1	=1	=1	=1
2D	2F#	2A	2d
2BB	2B	2d	2f#
=2	=2	=2	=2
2E	2B	2e	2g
2D	2d	2f#X	2a
=3	=3	=3	=3
2AA	2c#	2e	2a
4D	4d	4f#X	4a
4D	4A	4d	4f#
=4	=4	=4	=4
4BB	4B	4d	4g
4AA	4c#	4f#X	4a
2GG	2d	2g	2b
=5	=5	=5	=5
4D	4d	4f#X	4a
4E	4B	4e	4g
4BB	4B	4e	4f#
4BB	4B	4d	4f#
=6	=6	=6	=6
2E	2B	2e	2e
2D	2d	2f#X	2a
=7	=7	=7	=7
4GG	4d	4g	4b
4AA	4cn	4f#X	4a
4Cn	4c	4e	4g
4D	4A	[4d	4f#
=8	=8	=8	=8
2AA	2A	4d]	2e
.	.	4c#X	.
2D	2A	2d	2d
=9	=9	=9	=9
2r	2r	2r	2r
2D	2F#	2A	2d
=10	=10	=10	=10
4BB	4B	4d	4f#
4E	4B	4e	4g
2AA	2c#	2e	2a
=11	=11	=11	=11
2D	2d	2f#X	2a
4GG	4d	4g	4b
4D	4d	4f#X	4a
=12	=12	=12	=12
4E	4B	4e	4g
4E	4B	4e	4g
2BB	2B	2e-X	2f#
=13	=13	=13	=13
2r	2r	2r	2r
2D	2F#	2d	2a
=14	=14	=14	=14
4GG	4B	4d	4g
4D	4A	4d	4f#
2AA	2A	2c#X	2e
=15	=15	=15	=15
2D	2A	2d	2f#
4GG	4B	4d	4g
4AA	4A	[4f#X	4f#
=16	=16	=16	=16
2BB	2F#	4f#]	2d
.	.	2d	.
2AA	2A	.	2e
.	.	4c#X	.
=17	=17	=17	=17
2D	2A	2d	2d
2r	2r	2r	2r
=18	=18	=18	=18
2D	2f#	2a	2dd
4D	4f#	4a	4dd
4D	4f#	4a	4dd
=19	=19	=19	=19
2A	2e	2a	2cc#
2D	2d	2f#X	2a
=20	=20	=20	=20
4BB	4d	4f#X	4b
4AA	4e	4a	4cc#
4D	4f#	4a	4dd
4AA	4e	[4a	4cc#
=21	=21	=21	=21
2E	2e	4a]	2b
.	.	4g#X	.
2AA	2e	2a	2a
=22	=22	=22	=22
2r	2r	2r	2r
2D	2d	2f#X	2a
=23	=23	=23	=23
4AA	4c#	4e	4a
4D	4d	4f#X	4a
2GG	2d	2g	2b
=24	=24	=24	=24
2D	2d	2f#X	2a
4E	4B	4e	4g
4BB	4d	4f#X	4b
=25	=25	=25	=25
4D	4d	4f#X	4a
4E	4B	2e	4g
2BB	2B	.	2f#
.	.	4e-X	.
=26	=26	=26	=26
2E	2B	2e	2e
2r	2r	2r	2r
=27	=27	=27	=27
2D	2d	2f#X	2a
4F#	4c#	4f#X	4a
4F#	4c#	4f#X	4a
=28	=28	=28	=28
2E	2e	2g	2b
2D	2f#	2a	2dd
=29	=29	=29	=29
4F#	4f#	4a	4cc#
4F#	4c#	4f#X	4a
4E	4e	4g	4b
4E	4e	4g	4b
=30	=30	=30	=30
2AA	2c#	2a	2a
2r	2r	2r	2r
=31	=31	=31	=31
2D	2d	2f#X	2a
4GG	4d	4g	4b
4GG	4d	4g	4b
=32	=32	=32	=32
2D	2d	2f#X	2a
2GG	2B	2d	2g
=33	=33	=33	=33
4D	4A	4d	4f#
4AA	4A	4c#X	4e
2BB	2F#	4B	2d
.	.	[4d	.
=34	=34	=34	=34
2AA	2A	4d]	2e
.	.	4c#X	.
[2D	[2A	[2d	[2d
=35	=35	=35	=35
2D]	2A]	2d]	2d]
2ryy	2ryy	2ryy	2ryy
==	==	==	==
*-	*-	*-	*-
!!!software: music21 v.9.7.1
!!!software: music21 v.8.3.0
!!!RDF**kern: > = above
!!!RDF**kern: < = below
